resources/haticons/SVG/view_list.svg

<!-- Generated by IcoMoon.io -->
<svg version="1.1" xmlns="http://www.w3.org/2000/svg" width="24" height="24" viewBox="0 0 24 24">
<title>view_list</title>
<path d="M9 5.016h12v3.984h-12v-3.984zM9 18.984v-3.984h12v3.984h-12zM9 14.016v-4.031h12v4.031h-12zM3.984 9v-3.984h4.031v3.984h-4.031zM3.984 18.984v-3.984h4.031v3.984h-4.031zM3.984 14.016v-4.031h4.031v4.031h-4.031z"></path>
</svg>

<svg xmlns="http://www.w3.org/2000/svg" width="24" height="24"><path d="M9 5.016h12V9H9V5.016zm0 13.968V15h12v3.984H9zm0-4.968V9.985h12v4.031H9zM3.984 9V5.016h4.031V9H3.984zm0 9.984V15h4.031v3.984H3.984zm0-4.968V9.985h4.031v4.031H3.984z"/></svg>
